img/1820468_brand_linkedin_logo_network_social_icon.svg

<?xml version="1.0" encoding="UTF-8"?>
<svg id="linkedin" xmlns="http://www.w3.org/2000/svg" viewBox="0 0 183.84 179.9">
  <defs>
    <style>
      .cls-1 {
        fill: #0093e9;
      }
    </style>
  </defs>
  <path class="cls-1" d="M21.57,0C9.07,0,0,8.62,0,20.49s8.89,20.47,21.14,20.47c6.35,0,11.82-2.06,15.83-5.96,3.84-3.74,5.96-8.89,5.95-14.61C42.64,8.39,33.86,0,21.57,0Zm9.82,29.27c-2.48,2.41-6.03,3.69-10.25,3.69-7.73,0-13.14-5.13-13.14-12.47S13.45,8,21.57,8s13.17,4.94,13.35,12.49c0,3.45-1.25,6.57-3.53,8.78Z"/>
  <path class="cls-1" d="M3.84,179.9H39.79V47.72H3.84V179.9ZM11.84,55.72H31.79v116.18H11.84V55.72Z"/>
  <path class="cls-1" d="M134.59,47.72c-16.67,0-26.88,5.75-32.79,11.17l-1.12-11.17H60V179.9h39.84V110.43c0-2.99,1.21-9.21,1.97-10.85,4.81-10.37,11.3-10.37,21.14-10.37,11.32,0,20.89,10.62,20.89,23.19v67.49h40V105.22c0-39.5-25.53-57.5-49.24-57.5h0Zm41.24,124.18h-24v-59.49c0-16.91-13.23-31.19-28.89-31.19-10.05,0-21.43,0-28.39,15-1.44,3.1-2.71,10.53-2.71,14.21v61.47h-23.84V55.72h25.44l1.63,16.18h6.55l1.17-1.89c2.67-4.29,11.11-14.29,31.79-14.29s41.24,15.49,41.24,49.5v66.68h0Z"/>
</svg>

<?xml version="1.0" encoding="utf-8"?>
<!-- Generator: Adobe Illustrator 26.5.0, SVG Export Plug-In . SVG Version: 6.00 Build 0)  -->
<svg version="1.1" id="linkedin" xmlns="http://www.w3.org/2000/svg" xmlns:xlink="http://www.w3.org/1999/xlink" x="0px" y="0px"
	 viewBox="0 0 183.8 179.9" style="enable-background:new 0 0 183.8 179.9;" xml:space="preserve">
<style type="text/css">
	.st0{fill:#FFFFFF;}
</style>
<path class="st0" d="M21.6,0C9.1,0,0,8.6,0,20.5S8.9,41,21.1,41c6.4,0,11.8-2.1,15.8-6c3.8-3.7,6-8.9,6-14.6C42.6,8.4,33.9,0,21.6,0
	z M31.4,29.3c-2.5,2.4-6,3.7-10.2,3.7C13.4,33,8,27.8,8,20.5S13.4,8,21.6,8s13.2,4.9,13.3,12.5C34.9,23.9,33.7,27.1,31.4,29.3z"/>
<path class="st0" d="M3.8,179.9h36V47.7h-36V179.9z M11.8,55.7h20v116.2h-20V55.7z"/>
<path class="st0" d="M134.6,47.7c-16.7,0-26.9,5.8-32.8,11.2l-1.1-11.2H60v132.2h39.8v-69.5c0-3,1.2-9.2,2-10.8
	c4.8-10.4,11.3-10.4,21.1-10.4c11.3,0,20.9,10.6,20.9,23.2v67.5h40v-74.7C183.8,65.7,158.3,47.7,134.6,47.7L134.6,47.7L134.6,47.7z
	 M175.8,171.9h-24v-59.5c0-16.9-13.2-31.2-28.9-31.2c-10.1,0-21.4,0-28.4,15c-1.4,3.1-2.7,10.5-2.7,14.2v61.5H68V55.7h25.4l1.6,16.2
	h6.6l1.2-1.9c2.7-4.3,11.1-14.3,31.8-14.3s41.2,15.5,41.2,49.5L175.8,171.9L175.8,171.9L175.8,171.9z"/>
</svg>
